src/pos-icons/format-rotate-90.svg

<svg height="24" viewBox="0 0 24 24" width="24" xmlns="http://www.w3.org/2000/svg"><path d="m7.34 6.41-6.48 6.49 6.49 6.48 6.49-6.48zm-3.65 6.49 3.66-3.66 3.65 3.66-3.66 3.66zm15.67-6.26c-1.75-1.76-4.06-2.64-6.36-2.64v-3.24l-4.24 4.24 4.24 4.24v-3.24c1.79 0 3.58.68 4.95 2.05 2.73 2.73 2.73 7.17 0 9.9-1.37 1.37-3.16 2.05-4.95 2.05-.97 0-1.94-.21-2.84-.61l-1.49 1.49c1.33.74 2.83 1.12 4.33 1.12 2.3 0 4.61-.88 6.36-2.64 3.52-3.51 3.52-9.21 0-12.72z"/></svg>

<?xml version="1.0" encoding="UTF-8"?><!DOCTYPE svg PUBLIC "-//W3C//DTD SVG 1.1//EN" "http://www.w3.org/Graphics/SVG/1.1/DTD/svg11.dtd"><svg xmlns="http://www.w3.org/2000/svg" xmlns:xlink="http://www.w3.org/1999/xlink" version="1.1" id="mdi-format-rotate-90" width="24" height="24" viewBox="0 0 24 24"><path d="M7.34,6.41L0.86,12.9L7.35,19.38L13.84,12.9L7.34,6.41M3.69,12.9L7.35,9.24L11,12.9L7.34,16.56L3.69,12.9M19.36,6.64C17.61,4.88 15.3,4 13,4V0.76L8.76,5L13,9.24V6C14.79,6 16.58,6.68 17.95,8.05C20.68,10.78 20.68,15.22 17.95,17.95C16.58,19.32 14.79,20 13,20C12.03,20 11.06,19.79 10.16,19.39L8.67,20.88C10,21.62 11.5,22 13,22C15.3,22 17.61,21.12 19.36,19.36C22.88,15.85 22.88,10.15 19.36,6.64Z" /></svg>
